boxicons/svg/regular/bx-comment-edit.svg

<svg xmlns="http://www.w3.org/2000/svg" width="24" height="24" viewBox="0 0 24 24"><path d="m13.771 9.123-1.399-1.398-3.869 3.864v1.398h1.398zM14.098 6l1.398 1.398-1.067 1.067-1.398-1.398z"/><path d="M20 2H4c-1.103 0-2 .897-2 2v18l5.333-4H20c1.103 0 2-.897 2-2V4c0-1.103-.897-2-2-2zm0 14H6.667L4 18V4h16v12z"/></svg>

<svg xmlns="http://www.w3.org/2000/svg" width="24" height="24" viewBox="0 0 24 24"><path d="M13.771 9.123L12.372 7.725 8.503 11.589 8.503 12.987 9.901 12.987z"/><path transform="rotate(45.001 14.264 7.232)" d="M13.275 6.478H15.253V7.987H13.275z"/><path d="M20,2H4C2.897,2,2,2.897,2,4v18l5.333-4H20c1.103,0,2-0.897,2-2V4C22,2.897,21.103,2,20,2z M20,16H6.667L4,18V4h16V16z"/></svg>
